X: 3
T: Pretty Peg
R: reel
M: 4/4
L: 1/8
K: Dmaj
defd ADFA|defa gfec|defd AFDF|1{G}FE {F}ED CEAc:|2{G}FE {F}ED CEAG||
FD ~D2 BDAD|FDAD CEAG|FD ~D2 BDAF|{G}FE {F}ED A,DDE|
FDdD cDBD|ADFD CEAG|FAdf ecdB|AFGE FDFA|]


Tune 1783	Setting 1783

